X: 121
T: No_79_Manabus_and_the_Stone_(a).krn
N: Derived from No_79_Manabus_and_the_Stone_(a).krn
%%abc-version 2.0
%%abcx-abcm2ps-target-version 5.9.1 (29 Sep 2008)
%%abc-creator hum2abc beta
%%abcx-conversion-date 2019/03/15 08:35:45
%%humdrum-veritas 1609933517
%%humdrum-veritas-data 1757519883
%%linebreak <none>
%%barnumbers 0
L: 1/8
M: 2/4
K: E clef=bass
[K:clef=bass][M:2/4]z2z G, | 
F,2F,3/F,/ | 
G,2G,3/F,/ | 
E,2E, z/ F,/ ]|:  
E,2E,3/E,/ | 
E,2E,3/C,/ | 
B,,2B,,/ z/ F, | 
E,2E,3/E,/ | 
F,2F,3/E,/ | 
E,2E,/ z/ F, | 
E,2E,3/E,/ | 
E,2E,3/C,/ | 
B,,2B,,/ z/ C, | 
B,,2B,,3/C,/ | 
B,,2B,,3/G,,/ | 
E,,2E,, z | 
z2z G, | 
F,2F,3/=G,/ | 
G,2G,2 | 
F,2F,3/E,/ | 
E,2E, z/ F,/ :|]  



